polaris-icons/icons/new-icons/PageReferenceMinor.svg

<svg width="20" height="20" viewBox="0 0 20 20" fill="none" xmlns="http://www.w3.org/2000/svg">
<path fill-rule="evenodd" clip-rule="evenodd" d="M5.5 5.25C5.5 4.55964 6.05964 4 6.75 4H9V7.75C9 8.7165 9.7835 9.5 10.75 9.5H14.5V10.75C14.5 11.1642 14.8358 11.5 15.25 11.5C15.6642 11.5 16 11.1642 16 10.75V8.75C16 8.55109 15.921 8.36032 15.7803 8.21967L10.2803 2.71967C10.1397 2.57902 9.94891 2.5 9.75 2.5H6.75C5.23122 2.5 4 3.73122 4 5.25V14.75C4 16.2688 5.23122 17.5 6.75 17.5H10C10.4142 17.5 10.75 17.1642 10.75 16.75C10.75 16.3358 10.4142 16 10 16H6.75C6.05964 16 5.5 15.4404 5.5 14.75V5.25ZM13.4393 8L10.5 5.06066V7.75C10.5 7.88807 10.6119 8 10.75 8H13.4393Z" fill="#4A4A4A"/>
<path d="M15.2196 17.2804C15.5125 17.5732 15.9874 17.5733 16.2803 17.2804C16.5732 16.9875 16.5732 16.5126 16.2803 16.2197L14.3106 14.25H15.25C15.6642 14.25 16 13.9142 16 13.5C16 13.0858 15.6642 12.75 15.25 12.75H12.5C12.0858 12.75 11.75 13.0858 11.75 13.5L11.75 16.25C11.75 16.6642 12.0858 17 12.5 17C12.9142 17 13.25 16.6642 13.25 16.25V15.3107L15.2196 17.2804Z" fill="#4A4A4A"/>
</svg>

<svg viewBox="0 0 20 20" xmlns="http://www.w3.org/2000/svg"><path fill-rule="evenodd" d="M5.5 5.25c0-.69.56-1.25 1.25-1.25h2.25v3.75c0 .966.784 1.75 1.75 1.75h3.75v1.25a.75.75 0 0 0 1.5 0v-2a.75.75 0 0 0-.22-.53l-5.5-5.5a.75.75 0 0 0-.53-.22h-3a2.75 2.75 0 0 0-2.75 2.75v9.5a2.75 2.75 0 0 0 2.75 2.75h3.25a.75.75 0 0 0 0-1.5h-3.25c-.69 0-1.25-.56-1.25-1.25v-9.5Zm7.94 2.75-2.94-2.94v2.69c0 .138.112.25.25.25h2.69Z" fill="#5C5F62"/><path d="M15.22 17.28a.75.75 0 0 0 1.06-1.06l-1.97-1.97h.94a.75.75 0 0 0 0-1.5h-2.75a.75.75 0 0 0-.75.75v2.75a.75.75 0 0 0 1.5 0v-.94l1.97 1.97Z" fill="#5C5F62"/></svg>
